assets/images/ico_comment_24.svg

<svg width="24" height="25" viewBox="0 0 24 25" fill="none" xmlns="http://www.w3.org/2000/svg">
<path d="M18.6972 3.30298H5.31711C4.57014 3.30298 3.85376 3.60241 3.32518 4.13531C2.79702 4.66863 2.50024 5.39142 2.50024 6.14508V14.0247C2.50024 14.7784 2.79702 15.5016 3.32518 16.0345C3.85335 16.5674 4.57014 16.8668 5.31711 16.8668H10.1293V19.8819C10.1276 20.153 10.2034 20.4191 10.3481 20.6474C10.4927 20.8762 10.6993 21.0577 10.9437 21.1702C11.1298 21.2577 11.3323 21.303 11.5377 21.303C11.868 21.3009 12.187 21.182 12.4389 20.9667L17.2745 16.8694H18.683C19.4299 16.8694 20.1463 16.5699 20.6749 16.037C21.2035 15.5042 21.4998 14.7809 21.4998 14.0273V6.14508C21.4998 5.39396 21.2047 4.67286 20.6799 4.14038C20.1547 3.60791 19.4421 3.30678 18.6972 3.30298ZM19.6362 14.0226C19.6362 14.2738 19.5372 14.5149 19.3612 14.6925C19.1851 14.8702 18.9462 14.97 18.6972 14.97H16.9367C16.7158 14.97 16.5024 15.0495 16.3335 15.1929L12.0072 18.8614V15.9199C12.0072 15.6687 11.9082 15.4276 11.7322 15.25C11.5561 15.0723 11.3172 14.9725 11.0682 14.9725H5.31711C5.06812 14.9725 4.82919 14.8727 4.65313 14.6951C4.47708 14.5175 4.37815 14.2764 4.37815 14.0252V6.14508C4.37815 5.89386 4.47708 5.65279 4.65313 5.47516C4.82919 5.29753 5.06812 5.19772 5.31711 5.19772H18.6972C18.9462 5.19772 19.1851 5.29753 19.3612 5.47516C19.5372 5.65279 19.6362 5.89386 19.6362 6.14508V14.0226Z" fill="black"/>
</svg>

<svg xmlns="http://www.w3.org/2000/svg" width="24" height="25" fill="none"><path fill="#000" d="M18.697 3.303H5.317c-.747 0-1.463.3-1.992.832a2.856 2.856 0 0 0-.825 2.01v7.88c0 .753.297 1.477.825 2.01a2.805 2.805 0 0 0 1.992.832h4.812v3.015a1.414 1.414 0 0 0 .815 1.288c.186.088.388.133.594.133a1.4 1.4 0 0 0 .9-.336l4.836-4.098h1.409c.747 0 1.463-.3 1.992-.832a2.854 2.854 0 0 0 .825-2.01V6.145c0-.751-.295-1.472-.82-2.005a2.805 2.805 0 0 0-1.983-.837Zm.94 10.72a.952.952 0 0 1-.276.67.935.935 0 0 1-.664.277h-1.76c-.221 0-.435.08-.604.223l-4.326 3.668V15.92a.952.952 0 0 0-.275-.67.935.935 0 0 0-.664-.277h-5.75a.935.935 0 0 1-.665-.278.952.952 0 0 1-.275-.67v-7.88c0-.251.1-.492.275-.67a.935.935 0 0 1 .664-.277h13.38c.25 0 .488.1.664.277a.952.952 0 0 1 .275.67v7.878Z"/></svg>
